assets/svg/itinerary-line-idf-b.svg

<svg version="1.1" id="Calque_1" xmlns="http://www.w3.org/2000/svg" x="0" y="0" width="500" height="500" xml:space="preserve"><style>.st0{fill:#0f87c9}</style><path class="st0" d="M250.1 37.2c-117.3 0-212.7 95.2-212.7 213.2 0 117.2 95.4 212.4 212.7 212.4s212.7-95.2 212.7-212.4c-.1-118-95.5-213.2-212.7-213.2m0 462.8C111.8 500 0 388.4 0 250.4 0 111.6 111.8 0 250.1 0 388.3 0 500 111.6 500 250.4c0 138-111.7 249.6-249.9 249.6"/><path class="st0" d="M287.9 297.8c0 30.4-21.5 35.1-45.7 35.1H212v-65.1h27.5c16.9-.1 48.4.9 48.4 30m-5.1-93.6c0 26.8-27.4 26.5-44.9 26.5H212v-53.6h25.1c17 0 45.7-.7 45.7 27.1m57.1 94.9c0-33.1-20.6-52.3-45-55.6v-.6c18.1-3.3 37.3-21.5 37.3-45.5 0-50.6-46.7-59.3-84.8-59.3H160v233.4h83.8c44.3 0 96.1-13.5 96.1-72.4"/></svg>

<?xml version="1.0" encoding="utf-8"?>

<svg version="1.1" id="Calque_1" xmlns="http://www.w3.org/2000/svg" xmlns:xlink="http://www.w3.org/1999/xlink" x="0px" y="0px"
	 width="500px" height="500px" viewBox="0 0 500 500" style="enable-background:new 0 0 500 500;" xml:space="preserve">
<style type="text/css">
	.st0{fill:#0F87C9;}
</style>
<path class="st0" d="M250.1,37.2c-117.3,0-212.7,95.2-212.7,213.2c0,117.2,95.4,212.4,212.7,212.4s212.7-95.2,212.7-212.4
	C462.7,132.4,367.3,37.2,250.1,37.2 M250.1,500C111.8,500,0,388.4,0,250.4C0,111.6,111.8,0,250.1,0C388.3,0,500,111.6,500,250.4
	C500,388.4,388.3,500,250.1,500"/>
<path class="st0" d="M287.9,297.8c0,30.4-21.5,35.1-45.7,35.1H212v-65.1h27.5C256.4,267.7,287.9,268.7,287.9,297.8 M282.8,204.2
	c0,26.8-27.4,26.5-44.9,26.5H212v-53.6h25.1C254.1,177.1,282.8,176.4,282.8,204.2 M339.9,299.1c0-33.1-20.6-52.3-45-55.6v-0.6
	c18.1-3.3,37.3-21.5,37.3-45.5c0-50.6-46.7-59.3-84.8-59.3H160v233.4h83.8C288.1,371.5,339.9,358,339.9,299.1"/>
</svg>
